images/6604204.svg

<?xml version="1.0" encoding="UTF-8"?>
<svg xmlns="http://www.w3.org/2000/svg" xmlns:xlink="http://www.w3.org/1999/xlink" width="300pt" height="300pt" viewBox="0 0 300 300" version="1.1">
<defs>
<g>
<symbol overflow="visible" id="glyph0-0">
<path style="stroke:none;" d="M 0.546875 1.9375 L 0.546875 -7.75 L 6.046875 -7.75 L 6.046875 1.9375 Z M 1.171875 1.328125 L 5.4375 1.328125 L 5.4375 -7.140625 L 1.171875 -7.140625 Z M 1.171875 1.328125 "/>
</symbol>
<symbol overflow="visible" id="glyph0-1">
<path style="stroke:none;" d="M 1.078125 -8.015625 L 2.171875 -8.015625 L 2.171875 -4.734375 L 6.109375 -4.734375 L 6.109375 -8.015625 L 7.1875 -8.015625 L 7.1875 0 L 6.109375 0 L 6.109375 -3.8125 L 2.171875 -3.8125 L 2.171875 0 L 1.078125 0 Z M 1.078125 -8.015625 "/>
</symbol>
<symbol overflow="visible" id="glyph0-2">
<path style="stroke:none;" d="M 4.328125 -7.28125 C 3.546875 -7.28125 2.921875 -6.984375 2.453125 -6.390625 C 1.992188 -5.804688 1.765625 -5.007812 1.765625 -4 C 1.765625 -2.988281 1.992188 -2.1875 2.453125 -1.59375 C 2.921875 -1.007812 3.546875 -0.71875 4.328125 -0.71875 C 5.117188 -0.71875 5.742188 -1.007812 6.203125 -1.59375 C 6.660156 -2.1875 6.890625 -2.988281 6.890625 -4 C 6.890625 -5.007812 6.660156 -5.804688 6.203125 -6.390625 C 5.742188 -6.984375 5.117188 -7.28125 4.328125 -7.28125 Z M 4.328125 -8.171875 C 5.453125 -8.171875 6.351562 -7.789062 7.03125 -7.03125 C 7.707031 -6.28125 8.046875 -5.269531 8.046875 -4 C 8.046875 -2.738281 7.707031 -1.726562 7.03125 -0.96875 C 6.351562 -0.21875 5.453125 0.15625 4.328125 0.15625 C 3.203125 0.15625 2.300781 -0.21875 1.625 -0.96875 C 0.957031 -1.71875 0.625 -2.726562 0.625 -4 C 0.625 -5.269531 0.957031 -6.28125 1.625 -7.03125 C 2.300781 -7.789062 3.203125 -8.171875 4.328125 -8.171875 Z M 4.328125 -8.171875 "/>
</symbol>
</g>
</defs>
<g id="surface53361">
<rect x="0" y="0" width="300" height="300" style="fill:rgb(100%,100%,100%);fill-opacity:1;stroke:none;"/>
<path style=" stroke:none;fill-rule:nonzero;fill:rgb(0%,0%,0%);fill-opacity:1;" d="M 111.394531 138.902344 L 103.054688 114.324219 L 95.144531 118.664062 Z M 111.394531 138.902344 "/>
<path style="fill:none;stroke-width:1.2;stroke-linecap:butt;stroke-linejoin:miter;stroke:rgb(0%,0%,0%);stroke-opacity:1;stroke-miterlimit:10;" d="M 111.394531 138.902344 L 124.269531 116.824219 "/>
<path style="fill:none;stroke-width:1.2;stroke-linecap:butt;stroke-linejoin:miter;stroke:rgb(0%,0%,0%);stroke-opacity:1;stroke-miterlimit:10;" d="M 124.078125 161.09375 L 111.394531 138.902344 "/>
<path style="fill:none;stroke-width:1.2;stroke-linecap:butt;stroke-linejoin:miter;stroke:rgb(0%,0%,0%);stroke-opacity:1;stroke-miterlimit:10;" d="M 86.367188 144.109375 L 111.394531 138.902344 "/>
<path style="fill:none;stroke-width:1.2;stroke-linecap:butt;stroke-linejoin:miter;stroke:rgb(0%,0%,0%);stroke-opacity:1;stroke-miterlimit:10;" d="M 124.269531 116.824219 L 149.828125 116.933594 "/>
<path style="fill:none;stroke-width:1;stroke-linecap:butt;stroke-linejoin:miter;stroke:rgb(0%,0%,0%);stroke-opacity:1;stroke-miterlimit:10;" d="M 162.511719 139.125 L 162.511719 139.125 M 161.5 136.300781 L 160.59375 136.820312 M 160.484375 133.476562 L 158.675781 134.511719 M 159.472656 130.652344 L 156.757812 132.207031 M 158.457031 127.832031 L 154.835938 129.898438 M 157.445312 125.007812 L 152.917969 127.59375 M 156.429688 122.183594 L 151 125.289062 M 155.417969 119.359375 L 149.082031 122.980469 M 154.40625 116.535156 L 147.164062 120.675781 M 153.746094 114.695312 L 145.914062 119.171875 "/>
<path style="fill:none;stroke-width:1.2;stroke-linecap:butt;stroke-linejoin:miter;stroke:rgb(0%,0%,0%);stroke-opacity:1;stroke-miterlimit:10;" d="M 162.511719 139.125 L 149.636719 161.203125 "/>
<path style="fill:none;stroke-width:1.2;stroke-linecap:butt;stroke-linejoin:miter;stroke:rgb(0%,0%,0%);stroke-opacity:1;stroke-miterlimit:10;" d="M 188.070312 139.234375 L 162.511719 139.125 "/>
<path style="fill:none;stroke-width:1.2;stroke-linecap:butt;stroke-linejoin:miter;stroke:rgb(0%,0%,0%);stroke-opacity:1;stroke-miterlimit:10;" d="M 149.636719 161.203125 L 124.078125 161.09375 "/>
<path style=" stroke:none;fill-rule:nonzero;fill:rgb(0%,0%,0%);fill-opacity:1;" d="M 149.636719 161.203125 L 158.402344 185.632812 L 166.234375 181.15625 Z M 149.636719 161.203125 "/>
<path style=" stroke:none;fill-rule:nonzero;fill:rgb(0%,0%,0%);fill-opacity:1;" d="M 124.078125 161.09375 L 103.550781 176.980469 L 110.230469 183.046875 Z M 124.078125 161.09375 "/>
<path style="fill:none;stroke-width:1.2;stroke-linecap:butt;stroke-linejoin:miter;stroke:rgb(0%,0%,0%);stroke-opacity:1;stroke-miterlimit:10;" d="M 106.890625 180.011719 L 83.585938 169.515625 "/>
<path style="fill:none;stroke-width:1.2;stroke-linecap:butt;stroke-linejoin:miter;stroke:rgb(0%,0%,0%);stroke-opacity:1;stroke-miterlimit:10;" d="M 83.585938 169.515625 L 86.367188 144.109375 "/>
<path style="fill:none;stroke-width:1;stroke-linecap:butt;stroke-linejoin:miter;stroke:rgb(0%,0%,0%);stroke-opacity:1;stroke-miterlimit:10;" d="M 86.367188 144.109375 L 86.367188 144.109375 M 83.417969 143.574219 L 83.414062 144.617188 M 80.464844 143.039062 L 80.457031 145.125 M 77.511719 142.503906 L 77.5 145.632812 M 74.5625 141.972656 L 74.542969 146.140625 M 71.609375 141.4375 L 71.585938 146.652344 M 68.65625 140.902344 L 68.628906 147.160156 M 65.703125 140.367188 L 65.671875 147.667969 M 62.753906 139.835938 L 62.714844 148.175781 M 60.828125 139.488281 L 60.789062 148.507812 "/>
<path style="fill:none;stroke-width:1.2;stroke-linecap:butt;stroke-linejoin:miter;stroke:rgb(0%,0%,0%);stroke-opacity:1;stroke-miterlimit:10;" d="M 86.367188 144.109375 L 83.546875 131.644531 "/>
<path style="fill:none;stroke-width:1.2;stroke-linecap:butt;stroke-linejoin:miter;stroke:rgb(100%,0%,0%);stroke-opacity:1;stroke-miterlimit:10;" d="M 83.546875 131.644531 L 80.726562 119.179688 "/>
<path style="fill:none;stroke-width:1.2;stroke-linecap:butt;stroke-linejoin:miter;stroke:rgb(0%,0%,0%);stroke-opacity:1;stroke-miterlimit:10;" d="M 60.808594 143.996094 L 35.25 143.886719 "/>
<path style="fill:none;stroke-width:1.2;stroke-linecap:butt;stroke-linejoin:miter;stroke:rgb(0%,0%,0%);stroke-opacity:1;stroke-miterlimit:10;" d="M 58.28125 137.972656 L 37.832031 137.882812 "/>
<path style="fill:none;stroke-width:1.2;stroke-linecap:butt;stroke-linejoin:miter;stroke:rgb(0%,0%,0%);stroke-opacity:1;stroke-miterlimit:10;" d="M 58.226562 150 L 37.78125 149.910156 "/>
<path style=" stroke:none;fill-rule:nonzero;fill:rgb(100%,100%,100%);fill-opacity:1;" d="M 72.726562 112.679688 L 89.726562 112.679688 L 89.726562 125.679688 L 72.726562 125.679688 Z M 72.726562 112.679688 "/>
<g style="fill:rgb(100%,0%,0%);fill-opacity:1;">
  <use xlink:href="#glyph0-1" x="72.726562" y="122.581055"/>
  <use xlink:href="#glyph0-2" x="80.750977" y="122.581055"/>
</g>
<path style="fill:none;stroke-width:1.2;stroke-linecap:butt;stroke-linejoin:miter;stroke:rgb(0%,0%,0%);stroke-opacity:1;stroke-miterlimit:10;" d="M 162.320312 183.394531 L 187.878906 183.507812 "/>
<path style="fill:none;stroke-width:1.2;stroke-linecap:butt;stroke-linejoin:miter;stroke:rgb(0%,0%,0%);stroke-opacity:1;stroke-miterlimit:10;" d="M 187.878906 183.507812 L 200.753906 161.425781 "/>
<path style="fill:none;stroke-width:1.2;stroke-linecap:butt;stroke-linejoin:miter;stroke:rgb(0%,0%,0%);stroke-opacity:1;stroke-miterlimit:10;" d="M 200.753906 161.425781 L 226.316406 161.539062 "/>
<path style="fill:none;stroke-width:1.2;stroke-linecap:butt;stroke-linejoin:miter;stroke:rgb(0%,0%,0%);stroke-opacity:1;stroke-miterlimit:10;" d="M 203.335938 155.421875 L 223.785156 155.511719 "/>
<path style="fill:none;stroke-width:1.2;stroke-linecap:butt;stroke-linejoin:miter;stroke:rgb(0%,0%,0%);stroke-opacity:1;stroke-miterlimit:10;" d="M 188.070312 139.234375 L 200.753906 161.425781 "/>
<path style="fill:none;stroke-width:1.2;stroke-linecap:butt;stroke-linejoin:miter;stroke:rgb(0%,0%,0%);stroke-opacity:1;stroke-miterlimit:10;" d="M 226.316406 161.539062 L 239.191406 139.457031 "/>
<path style="fill:none;stroke-width:1.2;stroke-linecap:butt;stroke-linejoin:miter;stroke:rgb(0%,0%,0%);stroke-opacity:1;stroke-miterlimit:10;" d="M 239.175781 142.464844 L 251.957031 142.519531 "/>
<path style="fill:none;stroke-width:1.2;stroke-linecap:butt;stroke-linejoin:miter;stroke:rgb(100%,0%,0%);stroke-opacity:1;stroke-miterlimit:10;" d="M 251.957031 142.519531 L 264.738281 142.578125 "/>
<path style="fill:none;stroke-width:1.2;stroke-linecap:butt;stroke-linejoin:miter;stroke:rgb(0%,0%,0%);stroke-opacity:1;stroke-miterlimit:10;" d="M 239.203125 136.449219 L 251.984375 136.507812 "/>
<path style="fill:none;stroke-width:1.2;stroke-linecap:butt;stroke-linejoin:miter;stroke:rgb(100%,0%,0%);stroke-opacity:1;stroke-miterlimit:10;" d="M 251.984375 136.507812 L 264.761719 136.5625 "/>
<path style="fill:none;stroke-width:1.2;stroke-linecap:butt;stroke-linejoin:miter;stroke:rgb(0%,0%,0%);stroke-opacity:1;stroke-miterlimit:10;" d="M 239.191406 139.457031 L 226.507812 117.265625 "/>
<path style=" stroke:none;fill-rule:nonzero;fill:rgb(100%,100%,100%);fill-opacity:1;" d="M 260.75 133.070312 L 269.75 133.070312 L 269.75 146.070312 L 260.75 146.070312 Z M 260.75 133.070312 "/>
<g style="fill:rgb(100%,0%,0%);fill-opacity:1;">
  <use xlink:href="#glyph0-2" x="260.75" y="142.97168"/>
</g>
<path style="fill:none;stroke-width:1.2;stroke-linecap:butt;stroke-linejoin:miter;stroke:rgb(0%,0%,0%);stroke-opacity:1;stroke-miterlimit:10;" d="M 226.507812 117.265625 L 200.949219 117.15625 "/>
<path style=" stroke:none;fill-rule:nonzero;fill:rgb(0%,0%,0%);fill-opacity:1;" d="M 188.070312 139.234375 L 204.84375 119.429688 L 197.050781 114.882812 Z M 188.070312 139.234375 "/>
</g>
</svg>

<svg xmlns="http://www.w3.org/2000/svg" xmlns:xlink="http://www.w3.org/1999/xlink" width="300pt" height="300pt" viewBox="0 0 300 300"><defs><symbol overflow="visible"><path d="M.547 1.938V-7.75h5.5v9.688zm.625-.61h4.266v-8.47H1.171zm0 0"/></symbol><symbol overflow="visible" id="a"><path d="M1.078-8.016h1.094v3.282H6.11v-3.282h1.077V0H6.11v-3.813H2.17V0H1.078zm0 0"/></symbol><symbol overflow="visible" id="b"><path d="M4.328-7.28c-.78 0-1.406.296-1.875.89-.46.585-.687 1.382-.687 2.39 0 1.012.226 1.813.687 2.406.47.586 1.094.875 1.875.875.79 0 1.414-.288 1.875-.874.457-.593.688-1.394.688-2.406 0-1.008-.23-1.805-.687-2.39-.46-.594-1.086-.89-1.875-.89zm0-.892c1.125 0 2.024.383 2.703 1.14C7.708-6.28 8.048-5.27 8.048-4c0 1.262-.34 2.273-1.016 3.03C6.353-.22 5.454.157 4.33.157S2.3-.22 1.625-.97c-.668-.75-1-1.757-1-3.03 0-1.27.332-2.28 1-3.03.676-.76 1.578-1.142 2.703-1.142zm0 0"/></symbol></defs><g><path fill="#fff" d="M0 0h300v300H0z"/><path d="M111.395 138.902l-8.34-24.578-7.91 4.34zm0 0"/><path d="M111.395 138.902l12.875-22.078M124.078 161.094l-12.683-22.192M86.367 144.11l25.028-5.208M124.27 116.824l25.558.11" stroke-width="1.2" stroke="#000" stroke-miterlimit="10" fill="none"/><path d="M162.512 139.125 161.5 136.3l-.906.52m-.11-3.343l-1.808 1.035m.797-3.86l-2.715 1.555m1.7-4.375l-3.622 2.066m2.61-4.89l-4.528 2.586m3.512-5.41L151 125.29m4.418-5.93l-6.336 3.62m5.324-6.445l-7.242 4.14m6.582-5.98l-7.832 4.477" stroke="#000" stroke-miterlimit="10" fill="none"/><path d="M162.512 139.125l-12.875 22.078M188.07 139.234l-25.558-.11M149.637 161.203l-25.56-.11" stroke-width="1.2" stroke="#000" stroke-miterlimit="10" fill="none"/><path d="M149.637 161.203l8.765 24.43 7.832-4.477zm0 0M124.078 161.094L103.55 176.98l6.68 6.067zm0 0"/><path d="M106.89 180.012l-23.304-10.496M83.586 169.516l2.78-25.407" stroke-width="1.2" stroke="#000" stroke-miterlimit="10" fill="none"/><path d="M86.367 144.11m-2.95-.536l-.003 1.043m-2.95-1.578l-.007 2.085m-2.945-2.62l-.012 3.128m-2.938-3.66l-.02 4.168m-2.933-4.702l-.024 5.214m-2.93-5.75l-.027 6.258m-2.927-6.793l-.03 7.3m-2.92-7.83l-.038 8.34m-1.887-8.69l-.04 9.02" stroke="#000" stroke-miterlimit="10" fill="none"/><path d="M86.367 144.11l-2.82-12.465" stroke-width="1.2" stroke="#000" stroke-miterlimit="10" fill="none"/><path d="M83.547 131.645l-2.82-12.465" stroke-width="1.2" stroke="#f00" stroke-miterlimit="10" fill="none"/><path d="M60.81 143.996l-25.56-.11M58.28 137.973l-20.448-.09M58.227 150l-20.446-.09" stroke-width="1.2" stroke="#000" stroke-miterlimit="10" fill="none"/><path d="M72.727 112.68h17v13h-17zm0 0" fill="#fff"/><g fill="#f00"><use xlink:href="#a" x="72.727" y="122.581"/><use xlink:href="#b" x="80.751" y="122.581"/></g><path d="M162.32 183.395l25.56.113M187.88 183.508l12.874-22.082M200.754 161.426l25.562.113M203.336 155.422l20.45.09M188.07 139.234l12.684 22.192M226.316 161.54l12.875-22.083M239.176 142.465l12.78.055" stroke-width="1.2" stroke="#000" stroke-miterlimit="10" fill="none"/><path d="M251.957 142.52l12.78.058" stroke-width="1.2" stroke="#f00" stroke-miterlimit="10" fill="none"/><path d="M239.203 136.45l12.78.058" stroke-width="1.2" stroke="#000" stroke-miterlimit="10" fill="none"/><path d="M251.984 136.508l12.778.054" stroke-width="1.2" stroke="#f00" stroke-miterlimit="10" fill="none"/><path d="M239.19 139.457l-12.682-22.19" stroke-width="1.2" stroke="#000" stroke-miterlimit="10" fill="none"/><path d="M260.75 133.07h9v13h-9zm0 0" fill="#fff"/><use xlink:href="#b" x="260.75" y="142.972" fill="#f00"/><path d="M226.508 117.266l-25.56-.11" stroke-width="1.2" stroke="#000" stroke-miterlimit="10" fill="none"/><path d="M188.07 139.234l16.774-19.804-7.793-4.547zm0 0"/></g></svg>
